!!!!SEGMENT: pl-kk--kk-i-482--002_zieleniewicz-msza-isza-gloria.krn
!!!id: 17xx:1910
!!!COM: Zieleniewicz
!!!OTL: Msza Isza – Gloria
!!!PDT: 1724
!!!SMS-siglum: PL-Kk
!!!SMS-shelfmark: Kk.I.482
!!!NIFC-rismID: 1001140322
!!!URL-scan: http://repozytorium.nifc.pl/skany/pl-kk-nut--i-482
!!!ONB-nifc: UWAGA: zakres skanów 0015-0031. Proszę uzupełnić pola !!!SMS dot. partytury i głosów.
!!!SMS-variant: Soprano. PL-Kk KK.I.482:0021-0022; Alto. PL-Kk KK.I.482:0017-0018; Tenore. PL-Kk KK.I.482:0023-0024; Basso. PL-Kk KK.I.482:0027-0028
!!!SMS-altvar: [Partytura] PL-Kk KK.I.482:0004-0008; Soprano PL-Kk KK.I.482:0033-0034; Alto PL-Kk KK.I.482:0037-0038; Tenore. PL-Kk KK.I.482:0042-0043
**kern	**text	**kern	**text	**kern	**text	**kern	**text
*part4	*part4	*part3	*part3	*part2	*part2	*part1	*part1
*staff4	*staff4	*staff3	*staff3	*staff2	*staff2	*staff1	*staff1
*I"Basso.	*	*I"Tenore.	*	*I"Alto.	*	*I"Soprano.	*
*I'B	*	*I'T	*	*I'A	*	*I'S	*
*clefF4	*	*clefC4	*	*clefC3	*	*clefC1	*
*k[]	*	*k[]	*	*k[]	*	*k[]	*
*M2/2	*	*M2/2	*	*M2/2	*	*M2/2	*
*met(c|)	*	*met(c|)	*	*met(c|)	*	*met(c|)	*
=1	=1	=1	=1	=1	=1	=1	=1
*all\right	*	*all\right	*	*all\right	*	*all\right	*
!LO:TX:a:t=4.	!	!LO:TX:a:t=1.	!	!LO:TX:a:t=5.	!	!	!
!LO:TX:a:t=Gloria	!	!LO:TX:a:t=Gloria.	!	!LO:TX:a:t=Gloria	!	!LO:TX:a:t=Gloria	!
00r	.	1r	.	00r	.	1ee	Et
=2	=2	=2	=2	=2	=2	=2	=2
*	*	*	*	*	*	*2\right	*
.	.	1A	Et	.	.	2a\	.
.	.	.	.	.	.	[y2cc\	.
=3	=3	=3	=3	=3	=3	=3	=3
!	!	!	!	!	!	!LO:N:xstem:cue	!
.	.	2E/	.	.	.	4cc\]	.
.	.	.	.	.	.	8b\L	.
.	.	.	.	.	.	8a\J	.
.	.	[y2G/	in	.	.	4b\	.
.	.	.	.	.	.	4cc\	in
=4	=4	=4	=4	=4	=4	=4	=4
!	!	!LO:N:xstem:cue	!	!	!	!	!
.	.	4G/]	.	.	.	2dd\	ter-
.	.	8F#X/L	.	.	.	.	.
.	.	8E/J	.	.	.	.	.
.	.	4F#/	ter-	.	.	2dd\	-ra
.	.	4G/	.	.	.	.	.
=5	=5	=5	=5	=5	=5	=5	=5
1A	Et	4A/	.	1r	.	4cc\	pax
.	.	4G/	.	.	.	4b\	.
.	.	4A/	.	.	.	4cc\	.
.	.	4B/	.	.	.	4dd\	.
=6	=6	=6	=6	=6	=6	=6	=6
*	*	*2\right	*	*	*	*	*
2AA/	.	2.c\	.	1e	Et	2ee\	.
[y2C/	.	.	.	.	.	2a\	ho-
.	.	4d\	.	.	.	.	.
=7	=7	=7	=7	=7	=7	=7	=7
!LO:N:xstem:cue	!	!	!	!	!	!	!
4C/]	.	2e\	.	2A/	.	2e/	-mi-
8BB/L	.	.	.	.	.	.	.
8AA/J	.	.	.	.	.	.	.
4BB/	.	2d\	-ra	4d\	in	2g\	.
4C/	in	.	.	4e\	.	.	.
!	!	!LO:LB:g=original	!	!	!	!LO:LB:g=original	!
=8	=8	=8	=8	=8	=8	=8	=8
*	*	*	*	*2\right	*	*	*
!	!	!	!	!LO:SIC:s:v=f#	!	!	!
1D	ter-	2c\	pax	2f\	ter-	4g/	.
.	.	.	.	.	.	8f#X/L	.
.	.	.	.	.	.	8e/J	.
!	!	!	!	!LO:SIC:s:v=f#	!	!	!
.	.	4A\	ho-	2f\	-ra	4f#/	.
.	.	4B\	.	.	.	4g/	.
=9	=9	=9	=9	=9	=9	=9	=9
1AA	-ra,	2.c\	-mi-	1e	pax	2.a\	.
.	.	8B\L	.	.	.	4a\	-ni-
.	.	8A\J	.	.	.	.	.
=10	=10	=10	=10	=10	=10	=10	=10
*2\right	*	*	*	*	*	*	*
2E\	pax	[y1B	.	2r	.	2g/	-bus
2D\	.	.	.	2f#X\	ho-	2f#X/	ho-
=11	=11	=11	=11	=11	=11	=11	=11
!	!	!LO:N:xstem:cue:vis=4	!	!	!	!	!
1C	ho-	2B\]	.	2g\	.	[y1e	-mi-
.	.	2A\	.	2e\	.	.	.
=12	=12	=12	=12	=12	=12	=12	=12
!	!	!	!	!	!	!LO:N:xstem:cue:vis=4	!
2.BB/	-mi-	2G/	.	2.B/	-mi-	2e/]	.
.	.	2F#X/	-ni-	.	.	2d#X/	-ni-
4BB/	-ni-	.	.	4B/	-ni-	.	.
!LO:LB:g=original	!	!	!	!LO:LB:g=original	!	!	!
=13	=13	=13	=13	=13	=13	=13	=13
1E	-bus,	2E/	-bus,	1B	-bus,	2e/	-bus,
.	.	[>2E/	bo-	.	.	2ee\	bo-
=14	=14	=14	=14	=14	=14	=14	=14
!LO:TX:a:t=3.	!	!	!	!LO:TX:a:t=3.	!	!	!
0r	.	2E/]	.	0r	.	2ee\	.
.	.	2F#X/	-ne	.	.	2dd\	-ne
=15	=15	=15	=15	=15	=15	=15	=15
.	.	2G/	vo-	.	.	2b\	vo-
.	.	2E/	.	.	.	2cc\	.
=16	=16	=16	=16	=16	=16	=16	=16
1r	.	4F#X/	.	1r	.	2dd\	.
.	.	4G/	.	.	.	.	.
.	.	[2A\	.	.	.	2cc\	-lun-
!	!	!LO:LB:g=original	!	!	!	!LO:LB:g=original	!
=17	=17	=17	=17	=17	=17	=17	=17
!	!	!LO:TX:a:t=P:problem:brak zakończenia ligatury	!	!	!	!	!
2r	.	2A\]	.	2r	.	1b	-ta-
2E\	Lau-	2G#X\	-lun-	2e\	Lau-	.	.
=18	=18	=18	=18	=18	=18	=18	=18
2.F\	-da-	2A\	-ta-	2.c\	-da-	1a	-tis,
.	.	2A\	-tis,Lau-	.	.	.	.
4F\	-mus	.	.	4d\	-mus	.	.
=19	=19	=19	=19	=19	=19	=19	=19
!	!	!	!	!	!	!LO:TX:a:t=3.	!
2E\	te,	2.c\	-da-	2e\	te,	0r	.
2C/	be-	.	.	2e\	be-	.	.
.	.	4c\	-mus	.	.	.	.
=20	=20	=20	=20	=20	=20	=20	=20
2E\	-ne-	2B\	te,	2g\	.	.	.
[2G\	-di-	2Gn/	be-	2d\	-ne-	.	.
=21	=21	=21	=21	=21	=21	=21	=21
2G\]	.	2B\	-ne-	2d\	-di-	1r	.
2F#X\	.	[2d\	-di-	2a\	.	.	.
=22	=22	=22	=22	=22	=22	=22	=22
2.E\	-ci-	2d\]	.	2g\	-ci-	[y1g	A-
.	.	2c\	.	2c\	-mus	.	.
4E\	-mus	.	.	.	.	.	.
=23	=23	=23	=23	=23	=23	=23	=23
!	!	!	!	!	!	!LO:N:xstem:cue:vis=4	!
2D\	te,	2B\	-ci-	2d\	te,	2g\]	.
[2D\	a-	4A\	-mus	2r	.	2f#X/	-do-
.	.	4G\	.	.	.	.	.
!LO:LB:g=original	!	!	!	!	!	!	!
=24	=24	=24	=24	=24	=24	=24	=24
!	!	!	!	!LO:TX:a:t=3.	!	!	!
2D\]	.	2F#X/	te,	0r	.	1a	-ra-
2C/	-do-	[>2A/	a-	.	.	.	.
!	!	!LO:LB:g=original	!	!	!	!	!
=25	=25	=25	=25	=25	=25	=25	=25
!	!	!LO:TX:a:t=P:problem:brak zakończenia ligatury	!	!	!	!	!
2.BB/	-ra-	2A\]	.	.	.	2.b\	.
.	.	2G#X/	-do-	.	.	.	.
4BB/	-mus	.	.	.	.	4b\	-mus
=26	=26	=26	=26	=26	=26	=26	=26
2AA/	te,	2.c\	-ra-	1r	.	2e/	te,
2A\	glo-	.	.	.	.	2r	.
.	.	4c\	-mus	.	.	.	.
!	!	!	!	!LO:LB:g=original	!	!	!
=27	=27	=27	=27	=27	=27	=27	=27
2A\	-ri-	2c\	te	2r	.	2r	.
2G#X\	-fi-	2B\	glo-	2e\	glo-	2ee\	glo-
=28	=28	=28	=28	=28	=28	=28	=28
2A\	-ca-	2c\	-ri-	2e\	-ri-	2ee\	-ri-
2F\	.	2A\	-fi-	2e\	-fi-	2dd\	-fi-
!	!	!	!	!	!	!LO:LB:g=original	!
=29	=29	=29	=29	=29	=29	=29	=29
[y1E	.	2G#X/	-ca-	2e\	-ca-	2ee\	-ca-
.	.	[>2A/	.	2a\	.	4dd\	.
.	.	.	.	.	.	4cc\	.
=30	=30	=30	=30	=30	=30	=30	=30
!LO:N:xstem:cue:vis=4	!	!	!	!	!	!	!
2E\]	.	2A/]	.	[y1e	.	2.b\	.
2E\	-mus	2G#X/	-mus	.	.	.	.
.	.	.	.	.	.	4b\	-mus
=31	=31	=31	=31	=31	=31	=31	=31
!	!	!	!	!LO:N:xstem:cue:vis=4	!	!	!
1AA	te,	1A	te,	2e\]	.	2cc\	te,
!	!	!LO:TX:a:t=Volti Subitto,	!	!	!	!	!
.	.	.	.	2e\	-mus	[y2ee\	Gra-
!	!	!LO:PB:g=original	!	!	!	!	!
=32	=32	=32	=32	=32	=32	=32	=32
!	!	!	!	!	!	!LO:N:xstem:cue:vis=4	!
2.A\	Gra-	2.c\	Gra-	1e	te,	4ee\]	.
.	.	.	.	.	.	4dd\	-ti-
.	.	.	.	.	.	[2cc\	-as
4G\	-ti-	4B\	-ti-	.	.	.	.
=33	=33	=33	=33	=33	=33	=33	=33
1F	-as	1A	-as	2.e\	Gra-	2cc\]	.
.	.	.	.	.	.	[y2ff\	a-
.	.	.	.	4e\	-ti-	.	.
!LO:LB:g=original	!	!	!	!	!	!	!
=34	=34	=34	=34	=34	=34	=34	=34
!	!	!	!	!	!	!LO:N:xstem:cue:vis=4	!
2.B-X\	a-	2.d\	a-	1f	-as	4ff\]	.
.	.	.	.	.	.	4ee\	-gi-
.	.	.	.	.	.	2dd\	-mus
4A\	.	4c\	-gi-	.	.	.	.
=35	=35	=35	=35	=35	=35	=35	=35
2G\	.	2B-X\	-mus	2.d\	a-	4ee\	ti-
.	.	.	.	.	.	4dd\	.
4G\	-gi-	4B-\	ti-	.	.	[2dd\	.
4F\	-mus	4A\	.	4d\	-gi-	.	.
=36	=36	=36	=36	=36	=36	=36	=36
4E\	ti-	4G/	.	2d\	-mus,	2dd\]	.
4D\	.	4F/	.	.	.	.	.
2E\	.	2G/	.	4e\	ti-	2cc#X\	.
.	.	.	.	4f\	.	.	.
!	!	!	!	!LO:LB:g=original	!	!LO:LB:g=original	!
=37	=37	=37	=37	=37	=37	=37	=37
1D	-bi,	2F#X/	-bi	4g\	.	1dd	-bi
.	.	.	.	4f\	.	.	.
.	.	[y2A\	pro-	2e\	.	.	.
=38	=38	=38	=38	=38	=38	=38	=38
!	!	!LO:N:xstem:cue	!	!	!	!LO:TX:a:t=3.	!
2.D\	pro-	4A\]	.	2f#X\	-bi,	0r	.
.	.	4A\	-pter	.	.	.	.
.	.	2Bn\	ma-	2r	.	.	.
4D\	-pter	.	.	.	.	.	.
=39	=39	=39	=39	=39	=39	=39	=39
2E\	ma-	2G/	-gnam	2.f#X\	pro-	.	.
2C/	-gnam	[y2c\	glo-	.	.	.	.
.	.	.	.	4f#\	-pter	.	.
=40	=40	=40	=40	=40	=40	=40	=40
!	!	!LO:N:xstem:cue	!	!	!	!	!
4E\	glo-	4c\]	.	2g\	ma-	1r	.
4F\	-ri-	4c\	-ri-	.	.	.	.
[2G\	-am	2B\	-am	2g\	-gnam	.	.
!	!	!LO:LB:g=original	!	!	!	!	!
=41	=41	=41	=41	=41	=41	=41	=41
2G\]	.	1A	tu-	4g\	glo-	2.dd\	Do-
.	.	.	.	8fn\L	.	.	.
.	.	.	.	8e\J	.	.	.
2F#X\	.	.	.	2d\	.	.	.
.	.	.	.	.	.	4cc\	-mi-
=42	=42	=42	=42	=42	=42	=42	=42
1G	tu-	2G/	-am,	2e\	-ri-	2b\	-ne
.	.	[y2G/	Do-	2f#X\	-am	[y2dd\	De-
=43	=43	=43	=43	=43	=43	=43	=43
!	!	!LO:N:xstem:cue	!	!	!	!LO:N:xstem:cue:vis=4	!
1D	-am,	4G/]	.	2g\	tu-	4dd\]	.
.	.	4G/	-mi-	.	.	8cc\L	.
.	.	.	.	.	.	8b\J	.
.	.	2F#X/	-ne	2d\	.	4a\	.
.	.	.	.	.	.	4a\	-us
!LO:PB:g=original	!	!	!	!	!	!	!
=44	=44	=44	=44	=44	=44	=44	=44
2r	.	4G/	De-	1d	-am,	4b\	Rex
.	.	4A/	.	.	.	4cc\	.
[y2G\	Do-	4B\	.	.	.	4dd\	.
.	.	4c\	-us	.	.	4cc\	.
=45	=45	=45	=45	=45	=45	=45	=45
!LO:N:xstem:cue	!	!	!	!	!	!	!
4G\]	.	4d\	Rex	2r	.	2b\	.
4F\	-mi-	4B\	.	.	.	.	.
!	!	!	!	!	!	!LO:TX:b:t=Volti Subitto.	!
2E\	-ne	[y2e\	.	[y2d\	Do-	2g\	cel-
!	!	!	!	!	!	!LO:PB:g=original	!
=46	=46	=46	=46	=46	=46	=46	=46
!	!	!LO:N:xstem:cue	!	!LO:N:xstem:cue	!	!	!
2.A\	De-	4e\]	.	4d\]	.	2.cc\	-le-
.	.	4d\	.	4d\	-mi-	.	.
.	.	[y2c\	ce-	2e\	-ne	.	.
4G\	-us	.	.	.	.	4b\	.
!	!	!	!	!LO:LB:g=original	!	!	!
=47	=47	=47	=47	=47	=47	=47	=47
!	!	!LO:N:xstem:cue	!	!	!	!	!
4F\	Rex	4c\]	.	2e\	De-	4a\	.
4E\	.	8d\L	.	.	.	8b\L	.
.	.	8e\J	.	.	.	8cc\J	.
4D\	ce-	[2f\	.	2e\	-us	[2dd\	.
4C\	.	.	.	.	.	.	.
=48	=48	=48	=48	=48	=48	=48	=48
2BB/	-le-	2f\]	.	4a\	Rex	2dd\]	.
.	.	.	.	4g\	.	.	.
2C/	.	2e\	-le-	4f\	.	[2cc\	.
.	.	.	.	4e\	.	.	.
!	!	!LO:LB:g=original	!	!	!	!	!
=49	=49	=49	=49	=49	=49	=49	=49
2F\	.	1d	-stis,	2d\	.	2cc\]	.
2G\	.	.	.	2e\	cel-	2b\	.
=50	=50	=50	=50	=50	=50	=50	=50
2C/	-stis	2e\	De-	2f\	-le-	2cc\	-stis
[>2C/	De-	[2c\	.	2d\	.	[2ee\	De-
=51	=51	=51	=51	=51	=51	=51	=51
2C/]	.	2c\]	.	2c\	-stis	2ee\]	.
2GG/	-us	2B\	-us	2e\	De-	2dd\	-us
!LO:LB:g=original	!	!	!	!	!	!	!
=52	=52	=52	=52	=52	=52	=52	=52
1AA	Pa-	1A	Pa-	2e\	.	1cc	Pa-
.	.	.	.	2d\	.	.	.
=53	=53	=53	=53	=53	=53	=53	=53
2AA/	-ter	2A\	-ter	2c\	-us	2cc\	-ter,
!	!	!	!	!LO:TX:b:t=Volti Subitto.	!	!	!
2C/	om-	2G/	om-	2c\	Pa-	2ee\	om-
!	!	!	!	!LO:PB:g=original	!	!	!
=54	=54	=54	=54	=54	=54	=54	=54
[y1BB	-ni-	2G/	.	2e\	-ter	2dd#X\	.
.	.	4F#X/	.	2e\	om-	[2ee\	.
.	.	4E/	.	.	.	.	.
!	!	!	!	!	!	!LO:LB:g=original	!
=55	=55	=55	=55	=55	=55	=55	=55
!LO:N:xstem:cue:vis=4	!	!	!	!	!	!LO:TX:a:t=P:problem:brak zakończenia ligatury	!
2BB/]	.	2.F#X/	-ni-	[y1B	-ni-	2ee\]	-ni
2BB/	-po-	.	.	.	.	2dd#X\	po-
.	.	4F#/	-po-	.	.	.	.
=56	=56	=56	=56	=56	=56	=56	=56
!	!	!	!	!LO:N:xstem:cue:vis=4	!	!	!
2E\	-tens	2G/	-tens,	2B/]	.	1ee	-tens,
[y2E\	Do-	[y2G/	Do-	2B/	-po-	.	.
=57	=57	=57	=57	=57	=57	=57	=57
!LO:N:xstem:cue	!	!LO:N:xstem:cue	!	!	!	!	!
4E\]	.	4G/]	.	2B/	-tens,	2r	.
4E\	-mi-	4G/	-mi-	.	.	.	.
2F#X\	-ne	2A\	-ne	[2g\	Do-	[y2dd\	Do-
!	!	!LO:LB:g=original	!	!	!	!	!
=58	=58	=58	=58	=58	=58	=58	=58
!	!	!	!	!	!	!LO:N:xstem:cue:vis=4	!
2G\	Fi-	4B\	Fi-	2g\]	.	4dd\]	.
.	.	4A\	.	.	.	4dd\	-mi-
2GG/	-li	4B\	.	4f#X\	-mi-	2ee\	-ne
.	.	4c\	.	4e\	-ne	.	.
=59	=59	=59	=59	=59	=59	=59	=59
2D\	Fi-	2d\	.	1d	Fi-	2.ff\	Fi-
[2D\	-li	2A\	-li	.	.	.	.
.	.	.	.	.	.	4ff\	-li
=60	=60	=60	=60	=60	=60	=60	=60
2D\]	u-	2.A\	u-	2d\	-li	2ff\	u-
2C/	-ni-	.	.	[2d\	u-	2ee\	-ni-
.	.	4A\	-ni-	.	.	.	.
=61	=61	=61	=61	=61	=61	=61	=61
2.BB/	-ge-	2A\	-ge-	2d\]	.	2.dd\	-ge-
.	.	2G#X/	-ni-	2e\	-ni-	.	.
4BB/	-ni-	.	.	.	.	4dd\	-ni-
=62	=62	=62	=62	=62	=62	=62	=62
2AA/	-te,	2A\	-te,	2f#X\	-ge-	2cc\	-te,
!LO:LB:g=original	!	!	!	!	!	!	!
[y2AA/	Je-	[y2A\	Je-	2d\	-ni-	2cc\	Je-
!	!	!	!	!LO:LB:g=original	!	!	!
=63	=63	=63	=63	=63	=63	=63	=63
!LO:N:xstem:cue	!	!LO:N:xstem:cue	!	!	!	!	!
4AA/]	.	4A\]	.	2e\	-te,	4cc\	.
4BB/	.	8G/L	.	.	.	4dd\	.
.	.	8F#X/J	.	.	.	.	.
!	!	!	!	!	!	!LO:LB:g=original	!
4C/	.	4E/	.	[y2e\	Je-	4ee\	.
4D/	.	4F#/	.	.	.	8dd\L	.
.	.	.	.	.	.	8cc\J	.
=64	=64	=64	=64	=64	=64	=64	=64
!	!	!	!	!LO:N:xstem:cue	!	!	!
2E\	.	2G/	.	4e\]	.	4b\	.
.	.	.	.	4d\	.	4e/	.
2C/	-su	2E/	-su	8c/L	.	[2ee\	.
.	.	.	.	8B/J	.	.	.
.	.	.	.	4A/	-su	.	.
=65	=65	=65	=65	=65	=65	=65	=65
1F	Chri-	[1A	Chri-	2G/	Chri-	2ee\]	.
.	.	.	.	[2c\	.	2dd\	-su
!	!	!LO:LB:g=original	!	!	!	!	!
=66	=66	=66	=66	=66	=66	=66	=66
!	!	!LO:TX:a:t=P:problem:brak zakończenia ligatury	!	!	!	!	!
1E	-ste,	2A\]	.	2c\]	.	2cc\	chris-
.	.	2G#X/	.	2A/	-ste.	2b\	.
=67	=67	=67	=67	=67	=67	=67	=67
2.F\	Do-	2.A\	.	1e	Do-	1a	-te,
4F\	-mi-	4B\	-ste,	.	.	.	.
=68	=68	=68	=68	=68	=68	=68	=68
!	!	!	!	!	!	!LO:TX:a:t=2	!
2E\	-ne	2.c\	Do-	2.c\	.	0r	.
[2F\	De-	.	.	.	.	.	.
.	.	4B\	-mi-	4d\	-mi-	.	.
=69	=69	=69	=69	=69	=69	=69	=69
2F\]	.	2A\	-ne	2e\	-ne	.	.
2E\	-us	[2c\	De-	2c\	De-	.	.
=70	=70	=70	=70	=70	=70	=70	=70
1D	A-	2c\]	.	2c\	-us	1ff	De-
.	.	2B\	[[-us]]	2e\	a-	.	.
=71	=71	=71	=71	=71	=71	=71	=71
2C/	.	1c	-us,	1f	-gnus	2ee\	-us
2AA/	-gnus	.	.	.	.	[2ff\	A-
!	!	!	!	!LO:LB:g=original	!	!	!
=72	=72	=72	=72	=72	=72	=72	=72
2BB/	De-	2d\	A-	2g\	De-	2ff\]	.
[>2C/	.	2c\	-gnus	2f\	.	2ee\	-gnus
!LO:LB:g=original	!	!	!	!	!	!LO:LB:g=original	!
=73	=73	=73	=73	=73	=73	=73	=73
!LO:TX:a:t=P:problem:brak zakończenia ligatury	!	!	!	!	!	!	!
2C/]	.	1f	De-	2d\	.	1dd	De-
2BB/	.	.	.	2e\	-i	.	.
=74	=74	=74	=74	=74	=74	=74	=74
2C/	-i,	2e,\	-i	2c\	Fi-	2cc\	-i
[y2C/	Fi-	[y2c\	Fi-	2g\	.	[y2ee\	Fi-
=75	=75	=75	=75	=75	=75	=75	=75
!LO:N:xstem:cue	!	!LO:N:xstem:cue	!	!	!	!LO:N:xstem:cue:vis=4	!
4C/]	.	4c\]	.	2g#X\	-li-	4ee\]	.
4C/	-li-	4c\	-li-	.	.	4ee\	-li-
!LO:SIC:s:v=GG#	!	!	!	!	!	!	!
2GG/	-us	2B\	-us	2g#\	-us	2dd\	-us
!	!	!LO:LB:g=original	!	!	!	!	!
=76	=76	=76	=76	=76	=76	=76	=76
0AA	Pa-	2.A\	Pa-	1g#X	Pa-	2.cc\	Pa-
.	.	4B\	.	.	.	4b\	.
=77	=77	=77	=77	=77	=77	=77	=77
.	.	4c\	.	1e	.	4a\	.
.	.	4B\	.	.	.	4b\	.
.	.	2A\	.	.	.	2cc\	.
=78	=78	=78	=78	=78	=78	=78	=78
!	!	!	!	!LO:TX:b:t=2	!	!	!
0E	-tris.	0G#X	-tris.	0e;	-tris.	0b;	-tris.
=79	=79	=79	=79	=79	=79	=79	=79
!	!	!LO:TX:a:t=79.	!	!	!	!LO:TX:b:t=79.	!
.	.	.	.	.	.	.	.
=80||	=80||	=80||	=80||	=80||	=80||	=80||	=80||
!LO:TX:a:t=2	!	!	!	!LO:TX:a:t=3.	!	!LO:TX:a:t=4	!
0r	.	1A	Qui	0r	.	00r	.
=81	=81	=81	=81	=81	=81	=81	=81
.	.	1c	tol-	.	.	.	.
=82	=82	=82	=82	=82	=82	=82	=82
1E	Qui	2B\	-lis	1r	.	.	.
.	.	2G/	pec-	.	.	.	.
=83	=83	=83	=83	=83	=83	=83	=83
1F	tol-	2.A\	-ca-	1c	Qui	.	.
.	.	4B\	.	.	.	.	.
=84	=84	=84	=84	=84	=84	=84	=84
2E\	-lis	4c\	.	1e	tol-	1ee	Qui
.	.	4d\	.	.	.	.	.
2C/	pec-	[2e\	.	.	.	.	.
!	!	!	!	!LO:LB:g=original	!	!	!
=85	=85	=85	=85	=85	=85	=85	=85
2AA/	-ca-	2e\]	.	2f\	-lis	1ff	tol-
2BB/	-ta	2d\	-ta	2f\	pec-	.	.
=86	=86	=86	=86	=86	=86	=86	=86
1C	mun-	1c	mun-	2c\	-ca-	2ee\	-lis
.	.	.	.	2e\	.	2cc\	pec-
!LO:LB:g=original	!	!LO:LB:g=original	!	!	!	!LO:LB:g=original	!
=87	=87	=87	=87	=87	=87	=87	=87
2GG/	-di	2.B\	-di	1d	-ta,	2dd\	-ca-
2G\	pec-	.	.	.	.	2ee\	-ta
.	.	4c\	pec-	.	.	.	.
=88	=88	=88	=88	=88	=88	=88	=88
2D\	-ca-	2d\	-ca-	2r	.	2ff\	mun-
2C#X/	-ta	2e\	-ta	2g\	pec-	[2ee\	.
=89	=89	=89	=89	=89	=89	=89	=89
1D	mun-	1fn	mun-	2.f\	-ca-	2ee\]	.
.	.	.	.	.	.	2dd\	.
.	.	.	.	4f\	-ta	.	.
=90	=90	=90	=90	=90	=90	=90	=90
2AA/	-di	1e	-di,	4c\	mun-	2cc\	-di,
.	.	.	.	4c\	-di	.	.
[2A\	mi-	.	.	[2e\	mi-	[2cc\	mi-
=91	=91	=91	=91	=91	=91	=91	=91
2A\]	.	[y1e	mi-	2e\]	.	2cc\]	.
4G\	-se-	.	.	[2g\	.	2b\	-se-
4F\	.	.	.	.	.	.	.
=92	=92	=92	=92	=92	=92	=92	=92
!	!	!LO:N:xstem:cue:vis=4	!	!	!	!	!
2E\	-re-	2e\]	.	2g\]	.	2g\	-re-
2F#X\	.	4d\	.	2f#X\	-se-	2a\	-re
.	.	4c\	-se-	.	.	.	.
=93	=93	=93	=93	=93	=93	=93	=93
1G	.	4B\	-re-	2d\	-re-	4g\	no-
.	.	4c\	.	.	.	4a\	.
.	.	4d\	.	2g\	.	4b\	.
.	.	4e\	.	.	.	4cc\	.
!	!	!	!	!LO:LB:g=original	!	!	!
=94	=94	=94	=94	=94	=94	=94	=94
1Fn	-re	4f\	.	2c\	.	4dd\	.
.	.	4e\	.	.	.	4cc\	.
.	.	4d\	.	2f\	.	[2ff\	.
.	.	4c\	.	.	.	.	.
!	!	!	!	!	!	!LO:LB:g=original	!
=95	=95	=95	=95	=95	=95	=95	=95
!LO:TX:a:t=2	!	!	!	!	!	!LO:TX:a:t=P:problem:brak zakończenia ligatury	!
0G	no-	4B\	.	2d\	.	2ff\]	.
.	.	4G\	-re	.	.	.	.
.	.	[2c\	no-	2B/	-re	2ee\	-bis
!	!	!LO:LB:g=original	!	!	!	!	!
=96	=96	=96	=96	=96	=96	=96	=96
.	.	2c\]	.	1d	no-	1dd	no-
.	.	2B\	.	.	.	.	.
=97	=97	=97	=97	=97	=97	=97	=97
1C	-bis,	2c\	-bis,	1c	-bis,	1ee	-bis,
.	.	2G/	qui	.	.	.	.
=98	=98	=98	=98	=98	=98	=98	=98
!	!	!	!	!	!	!LO:TX:a:t=1.	!
2r	.	1c	tol-	2r	.	1r	.
2C/	qui	.	.	2e\	qui	.	.
!LO:LB:g=original	!	!	!	!	!	!	!
=99	=99	=99	=99	=99	=99	=99	=99
1F	tol-	2A\	-lis	1f	tol-	2r	.
.	.	2A\	pec-	.	.	2cc\	qui
=100	=100	=100	=100	=100	=100	=100	=100
2D\	-lis	2.d\	-ca-	2a\	-lis	1ff	tol-
2D\	pec-	.	.	2a\	pec-	.	.
.	.	4c\	.	.	.	.	.
=101	=101	=101	=101	=101	=101	=101	=101
2G\	-ca-	2B\	.	2g\	-ca-	2dd\	-lis
2F#X\	.	2A\	.	2d\	-ta	2dd\	pec-
=102	=102	=102	=102	=102	=102	=102	=102
2E\	.	2G/	.	2g\	mun-	4cc#X\	-ca-
.	.	.	.	.	.	4cc#\	-ta
2D\	-ta	2F#X/	-ta	2d\	.	[2dd\	mun-
=103	=103	=103	=103	=103	=103	=103	=103
1E	mun-	1G	mun-	2B/	.	2dd\]	.
.	.	.	.	2c#X\	.	2cc#X\	.
!	!	!	!	!LO:LB:g=original	!	!	!
=104	=104	=104	=104	=104	=104	=104	=104
!	!	!	!	!	!	!LO:SIC:v:s=cc#	!
1D	-di,	1F#X	-di	2A/	-di,	2cc\	-di
!	!	!	!	!	!	!LO:LB:g=original	!
.	.	.	.	2r	.	[y2dd\	ſu-
=105	=105	=105	=105	=105	=105	=105	=105
!	!	!	!	!LO:TX:a:t=1.	!	!LO:N:xstem:cue	!
2.G\	Su-	2.B\	Sus-	1r	.	4dd\]	.
.	.	.	.	.	.	4cc\	-sci-
.	.	.	.	.	.	2b\	-pe
4Fn\	-sci-	4A\	-ci-	.	.	.	.
=106	=106	=106	=106	=106	=106	=106	=106
1E	-pe	1G	-pe	2.g\	Sus-	2b\	de-
.	.	.	.	.	.	[y2ee\	.
.	.	.	.	4f\	-ci-	.	.
!	!	!LO:LB:g=original	!	!	!	!	!
=107	=107	=107	=107	=107	=107	=107	=107
!	!	!	!	!	!	!LO:N:xstem:cue	!
2.A\	de-	2.c\	de-	2e\	-pe	4ee\]	.
.	.	.	.	.	.	4dd\	-pre-
.	.	.	.	2e\	depre-	[2cc\	-ca-
4G\	-pre-	4B\	-pre-	.	.	.	.
=108	=108	=108	=108	=108	=108	=108	=108
2F\	-ca-	2A\	-ca-	2f\	-ca-	2cc\]	.
2E\	-ti-	2G/	-ti-	2a\	-ti-	2cc\	-ti-
=109	=109	=109	=109	=109	=109	=109	=109
2D\	-o-	2F/	-o-	2d\	-o-	4b\	-o-
.	.	.	.	.	.	4a\	-nem
2C\	-nem	2E/	-nem	2g\	-nem	[2a\	no-
!LO:LB:g=original	!	!	!	!	!	!	!
=110	=110	=110	=110	=110	=110	=110	=110
1BB	no-	1D	no-	2f\	no-	2a\]	.
.	.	.	.	2d\	.	2g#X\	.
=111	=111	=111	=111	=111	=111	=111	=111
2AA/	-stram	2C/	-stram,	2e\	-stram,	1a	-stram
2r	.	2E/	Qui	2r	.	.	.
=112	=112	=112	=112	=112	=112	=112	=112
!	!	!	!	!	!	!LO:TX:a:t=4.	!
2r	.	1A	se-	2r	.	00r	.
2AA/	qui	.	.	2e\	qui	.	.
!	!	!	!	!LO:LB:g=original	!	!	!
=113	=113	=113	=113	=113	=113	=113	=113
1E	se-	2G/	-des	1g	se-	.	.
.	.	2E/	ad-	.	.	.	.
=114	=114	=114	=114	=114	=114	=114	=114
2D\	-des	2F#X/	-dex-	2d\	-des	.	.
2BB/	ad	4F#/	-te-	2d\	ad	.	.
.	.	4G/	-ram	.	.	.	.
=115	=115	=115	=115	=115	=115	=115	=115
2.C/	dex-	[y1A	Pa-	2.e\	dex-	.	.
4D/	-te-	.	.	4f\	-ter-	.	.
!	!	!	!	!	!	!LO:LB:g=original	!
=116	=116	=116	=116	=116	=116	=116	=116
!	!	!LO:N:xstem:cue:vis=4	!	!	!	!	!
1E	-ram	2A\]	.	1e	-ram,	2b\	qui
.	.	2G/	.	.	.	[2ee\	se-
!	!	!LO:LB:g=original	!	!	!	!	!
=117	=117	=117	=117	=117	=117	=117	=117
!	!	!	!	!LO:TX:a:t=4.	!	!	!
[y1BB	Pa-	2G/	.	00r	.	2ee\]	.
.	.	4F#X/	.	.	.	[2dd\	-des
.	.	4E/	.	.	.	.	.
=118	=118	=118	=118	=118	=118	=118	=118
!LO:N:xstem:cue:vis=4	!	!	!	!	!	!	!
2BB/]	.	2F#X/	.	.	.	2dd\]	.
2GG/	.	4G/	.	.	.	2b\	ad
.	.	4F#/	.	.	.	.	.
=119	=119	=119	=119	=119	=119	=119	=119
2AA/	.	4E/	.	.	.	4.cc\	dex-
.	.	4F#X/	.	.	.	.	.
.	.	.	.	.	.	8cc\	-te-
2BB/	.	[>2G/	.	.	.	2b\	-ram
=120	=120	=120	=120	=120	=120	=120	=120
2C/	.	2G/]	.	.	.	1a	Pa-
2D\	.	2F#X/	-tris,	.	.	.	.
!LO:LB:g=original	!	!	!	!	!	!	!
=121	=121	=121	=121	=121	=121	=121	=121
2GG/	-tris,	2G/	mi-	2r	.	1g	-tris.
[2G\	mi-	[2B\	.	2d\	mi-	.	.
=122	=122	=122	=122	=122	=122	=122	=122
!	!	!	!	!	!	!LO:TX:a:t=1.	!
2G\]	.	2B\]	.	1d	.	1r	.
2F#X\	-se-	2A\	-se-	.	.	.	.
=123	=123	=123	=123	=123	=123	=123	=123
2E\	-re-	2G/	-re-	2e\	.	2r	.
2D\	.	2F#X/	-re	2f#X\	-se-	[2dd\	mi-
=124	=124	=124	=124	=124	=124	=124	=124
[y1E	.	2G#X/	mi-	2B/	-re-	2dd\]	.
.	.	2A/	-se-	[>2B/	-re	2cc\	-se-
!	!	!LO:LB:g=original	!	!	!	!LO:LB:g=original	!
=125	=125	=125	=125	=125	=125	=125	=125
!LO:N:xstem:cue:vis=4	!	!	!	!	!	!	!
2E\]	.	2G#X/	-re-	2B/]	.	4b\	-re-
.	.	.	.	.	.	4e/	-re
2E\	-re	2c\	-re	2e\	no-	[2a\	no-
=126	=126	=126	=126	=126	=126	=126	=126
!	!	!	!	!LO:TX:a:t=2	!	!	!
1E	no-	1B	no-	0e	.	2a\]	.
.	.	.	.	.	.	2g#X\	.
=127	=127	=127	=127	=127	=127	=127	=127
0AA;	-bis.	1A	-bis.	.	.	1a	.
!	!	!	!	!LO:LB:g=original	!	!	!
=128	=128	=128	=128	=128	=128	=128	=128
!	!	!LO:TX:t=P:problem:brak t. 128	!	!	!	!	!
.	.	1ryy	.	2e\	-bis,	1a	-bis.
!	!	!	!	!	!	!LO:TX:b:t=49	!
.	.	.	.	2r	.	.	.
=129||	=129||	=129||	=129||	=129||	=129||	=129||	=129||
!	!	!LO:TX:a:t=4.	!	!LO:TX:a:t=1.	!	!	!
2.A\	Quo-	00r	.	1r	.	2.ee\	Quo-
4A\	-ni-	.	.	.	.	4ee\	-ni-
=130	=130	=130	=130	=130	=130	=130	=130
2G\	-am	.	.	2.d\	Quo-	2dd\	-am
2E\	tu	.	.	.	.	2b\	tu
.	.	.	.	4d\	-ni-	.	.
=131	=131	=131	=131	=131	=131	=131	=131
2F#X\	so-	.	.	2.c\	-am	4cc\	so-
.	.	.	.	.	.	4dd\	-lus
2G\	-lus	.	.	.	.	[2ee\	san-
.	.	.	.	4c\	tu	.	.
=132	=132	=132	=132	=132	=132	=132	=132
2.A\	san-	.	.	4f\	so-	2ee\]	.
.	.	.	.	4g\	.	.	.
.	.	.	.	2a\	-lus	2dd\	-ctus
4G\	.	.	.	.	.	.	.
!LO:LB:g=original	!	!	!	!	!	!LO:LB:g=original	!
=133	=133	=133	=133	=133	=133	=133	=133
4F\	.	2.A\	Quo-	2e\	san-	1ee	tu
4E\	.	.	.	.	.	.	.
2F\	.	.	.	2g\	.	.	.
.	.	4A\	-ni-	.	.	.	.
=134	=134	=134	=134	=134	=134	=134	=134
2E\	-ctus,	2G/	-am	2d\	.	2dd\	so-
2C/	tu	2E/	tu	[2c\	.	[y2cc\	.
=135	=135	=135	=135	=135	=135	=135	=135
!	!	!	!	!	!	!LO:N:xstem:cue	!
2D\	so-	2F#X/	so-	2c\]	.	4cc\]	.
.	.	.	.	.	.	4b\	-lus
2E\	-lus	2G#X/	-lus	2A/	.	[2a\	san-
=136	=136	=136	=136	=136	=136	=136	=136
1F	San-	2.A\	san-	1e	.	2a\]	.
.	.	.	.	.	.	2g#X\	.
.	.	4B\	.	.	.	.	.
=137	=137	=137	=137	=137	=137	=137	=137
1E	.	2c\	.	2e\	-ctus	2cc\	-ctus
.	.	2B\	.	2r	.	2cc\	tu
!	!	!	!	!LO:LB:g=original	!	!	!
=138	=138	=138	=138	=138	=138	=138	=138
!	!	!	!	!LO:TX:a:t=2	!	!	!
2AA/	-ctus,	1A	-ctus,	0r	.	2cc\	so-
2A\	tu	.	.	.	.	2b\	-lus
!	!	!LO:LB:g=original	!	!	!	!	!
=139	=139	=139	=139	=139	=139	=139	=139
!	!	!LO:TX:a:t=1.	!	!	!	!	!
2A\	so-	1r	.	.	.	2.cc\	Do-
2G#X\	-lus	.	.	.	.	.	.
.	.	.	.	.	.	4cc\	-mi-
=140	=140	=140	=140	=140	=140	=140	=140
2.A\	Do-	2r	.	2r	.	1b	-nus
.	.	2A\	tu	2e\	tu	.	.
4A\	-mi-	.	.	.	.	.	.
=141	=141	=141	=141	=141	=141	=141	=141
1E	-nus	2A\	so-	2e\	so-	2r	.
.	.	2G#X\	-lus	4e\	-lus	2cc\	tu
.	.	.	.	4e\	al-	.	.
!	!	!	!	!	!	!LO:LB:g=original	!
=142	=142	=142	=142	=142	=142	=142	=142
2r	.	2.A\	Do-	2.e\	-tis-	2cc\	so-
2A\	tu	.	.	.	.	4b\	-lus
.	.	4A\	-mi-	4e\	-si-	4b\	al-
!LO:LB:g=original	!	!	!	!	!	!	!
=143	=143	=143	=143	=143	=143	=143	=143
2A\	so-	1E	-nus,	2e\	-mus	2.cc\	-tis-
4G#X\	-lus	.	.	2e\	al-	.	.
4G#\	al-	.	.	.	.	4cc\	-si-
=144	=144	=144	=144	=144	=144	=144	=144
2.A\	-tis-	2r	.	2.e\	-tis-	2b\	-mus,
.	.	2A\	tu	.	.	2ee\	al-
4A\	-si-	.	.	4e\	-si-	.	.
=145	=145	=145	=145	=145	=145	=145	=145
2E\	-mus	2A\	so-	1e	-mus	2.cc\	-tis-
2E\	al-	4G#X/	-lus	.	.	.	.
.	.	4G#/	al-	.	.	4cc\	-si-
=146	=146	=146	=146	=146	=146	=146	=146
2.AA/	-tis-	2.A\	-tis-	4e\	Je-	1b	-mus
.	.	.	.	4f\	.	.	.
.	.	.	.	4g\	.	.	.
4AA/	-si-	4A\	-si-	4a\	.	.	.
=147	=147	=147	=147	=147	=147	=147	=147
1E	-mus.	1G#X	-mus	2d\	.	[1ee	Je-
.	.	.	.	2g\	-su	.	.
!	!	!	!	!LO:LB:g=original	!	!	!
=148	=148	=148	=148	=148	=148	=148	=148
4C\	Je-	1c	Je-	1e	chri-	2ee\]	.
4D\	.	.	.	.	.	.	.
4E\	.	.	.	.	.	2dd\	-su
4F\	.	.	.	.	.	.	.
!	!	!LO:PB:g=original	!	!	!	!	!
=149	=149	=149	=149	=149	=149	=149	=149
4G\	.	2c\	-su,	2f\	.	1cc	chri-
4A\	.	.	.	.	.	.	.
4B\	.	[2B\	Je-	2e\	.	.	.
4G\	.	.	.	.	.	.	.
=150	=150	=150	=150	=150	=150	=150	=150
4A\	.	2B\]	.	2e\	-ste,	1b	.
4G\	.	.	.	.	.	.	.
4F\	.	[2A\	-su	2c\	cun	.	.
4E\	-su	.	.	.	.	.	.
!LO:LB:g=original	!	!	!	!	!	!	!
=151	=151	=151	=151	=151	=151	=151	=151
2D\	Chri-	2A\]	.	2d\	san-	2cc#X\	-ste
!	!	!	!	!	!	!LO:TX:b:t=23.	!
2E\	.	2G#X/	Chri-	2e\	-cto	2r	.
!	!	!	!	!	!	!LO:LB:g=original	!
=152	=152	=152	=152	=152	=152	=152	=152
!	!	!	!	!	!	!LO:TX:a:t=1.	!
2AA/	-ste,	2A\	-ste,	2.d\	ſpi-	1r	.
2AA/	Cum	2A\	Cum	.	.	.	.
.	.	.	.	4d\	-ri-	.	.
=153	=153	=153	=153	=153	=153	=153	=153
2BB/	san-	2Gn/	san-	1e	-tu	2r	.
2C#X/	-cto	2E/	-cto	.	.	2dd\	cum
=154	=154	=154	=154	=154	=154	=154	=154
!	!	!	!	!LO:TX:a:t=1.	!	!	!
2.D\	Spi-	2.F/	spi-	1r	.	2cc\	san-
.	.	.	.	.	.	2a\	-cto
4D\	-ri-	4F/	-ri-	.	.	.	.
=155	=155	=155	=155	=155	=155	=155	=155
1AA	-tu	2E/	-tu	2r	.	2.b\	ſpi-
.	.	2A\	in	2d\	Cum	.	.
.	.	.	.	.	.	4b\	-ri-
=156	=156	=156	=156	=156	=156	=156	=156
!LO:TX:a:t=1.	!	!	!	!	!	!	!
1r	.	2G/	glo-	2e\	san-	2a\	-tu
.	.	4G/	-ri-	2a\	-cto	2b\	in
.	.	4G/	-a	.	.	.	.
=157	=157	=157	=157	=157	=157	=157	=157
2r	.	1Fn	De-	2.d\	ſpi-	[y1a	glo-
2D\	cum	.	.	.	.	.	.
.	.	.	.	4d\	-ri-	.	.
!	!	!LO:LB:g=original	!	!LO:LB:g=original	!	!	!
=158	=158	=158	=158	=158	=158	=158	=158
!	!	!	!	!	!	!LO:N:xstem:cue:vis=4	!
2C/	san-	2E/	-i,	2e\	-tu	2a\]	.
2AA/	-cto	2e\	Cum	2c\	in	2g#X\	-ri-
=159	=159	=159	=159	=159	=159	=159	=159
2.BB/	spi-	2d\	San-	2d\	glo-	1a	-a.
.	.	2B\	-cto	4d\	-ri-	.	.
4BB/	-ri-	.	.	4e\	-a	.	.
=160	=160	=160	=160	=160	=160	=160	=160
!	!	!	!	!	!	!LO:TX:a:t=1.	!
2AA/	-tu	2.c\	spi-	2f\	De-	1r	.
2A\	in	.	.	2a\	-i	.	.
.	.	4c\	-ri-	.	.	.	.
!LO:LB:g=original	!	!	!	!	!	!	!
=161	=161	=161	=161	=161	=161	=161	=161
2G\	glo-	1B	-tu,	2e\	Pa-	2r	.
4G\	-ri-	.	.	2g\	.	2a\	Cum
4G\	-a	.	.	.	.	.	.
=162	=162	=162	=162	=162	=162	=162	=162
1F	De-	1A	cum	2f#X\	-tris,	2b\	san-
.	.	.	.	2d\	cum	2cc#X\	-cto
!	!	!	!	!	!	!LO:PB:g=original	!
=163	=163	=163	=163	=163	=163	=163	=163
1E	.	2G/	san-	2g\	san-	2.dd\	ſpi-
.	.	2E/	-cto	2d\	-cto	.	.
.	.	.	.	.	.	4dd\	-ri-
=164	=164	=164	=164	=164	=164	=164	=164
2D\	-i,	2.F#X/	Spi-	2.d\	spi-	1ccn	-tu
2D\	Cum	.	.	.	.	.	.
.	.	4F#/	-ri-	4d\	-ri-	.	.
=165	=165	=165	=165	=165	=165	=165	=165
2E\	san-	2G/	-tu,	1d	-tu,	2r	.
2F#X\	-cto	2A\	in	.	.	2g\	cum
=166	=166	=166	=166	=166	=166	=166	=166
!	!	!	!	!LO:TX:a:t=1.	!	!	!
2.G\	spi-	2.B\	glo-	1r	.	2f#X/	san-
.	.	.	.	.	.	2d/	-cto
4G\	-ri-	4B\	-ri-	.	.	.	.
!	!	!	!	!LO:LB:g=original	!	!	!
=167	=167	=167	=167	=167	=167	=167	=167
1D	-tu	4A\	-a,	2r	.	2.e/	spi-
.	.	4A\	in	.	.	.	.
.	.	[2d\	glo-	2d\	Cum	.	.
.	.	.	.	.	.	4e/	-ri-
!	!	!LO:LB:g=original	!	!	!	!	!
=168	=168	=168	=168	=168	=168	=168	=168
2r	.	2d\]	.	2B/	san-	4d/	-tu,
.	.	.	.	.	.	4d/	in
2G\	cum	2c#X\	-ri-	2G/	-cto	[2dd\	glo-
=169	=169	=169	=169	=169	=169	=169	=169
2F#X\	san-	1d	-a	2.A/	spi-	2dd\]	.
2D\	-cto	.	.	.	.	2cc#X\	-ri-
.	.	.	.	4A/	-ri-	.	.
=170	=170	=170	=170	=170	=170	=170	=170
2.E\	spi-	1G	cum	2G/	-tu,	2dd\	-a,
.	.	.	.	4G/	san-	2dd\	in
4E\	-ri-	.	.	4A/	-cto	.	.
!LO:PB:g=original	!	!	!	!	!	!	!
=171	=171	=171	=171	=171	=171	=171	=171
1D	-tu,	2F#X/	san-	2B/	ſpi-	2cc\	glo-
!	!	!	!	!	!	!LO:LB:g=original	!
.	.	2D/	-cto	2d\	-ri-	4cc\	-ri-
.	.	.	.	.	.	4cc\	-a
=172	=172	=172	=172	=172	=172	=172	=172
!LO:TX:a:t=2.	!	!	!	!	!	!	!
0r	.	2.E/	spi-	2d\	-tu,	1b	De-
.	.	.	.	2d\	in	.	.
.	.	4F#X/	-ri-	.	.	.	.
=173	=173	=173	=173	=173	=173	=173	=173
.	.	4G/	-tu	2e\	glo-	2a\	-i
.	.	4D/	in	.	.	.	.
.	.	[>2G/	glo-	4a\	-ri-	4a\	De-
.	.	.	.	4g\	-a	4a\	-i
=174	=174	=174	=174	=174	=174	=174	=174
2r	.	2G/]	.	2f\	De-	4cc\	Pa-
.	.	.	.	.	.	4g\	-tris
2D\	cum	2F/	-ri-	2d\	.	[2a\	A-
=175	=175	=175	=175	=175	=175	=175	=175
2C/	san-	2E/	-a,	2e\	-i,	2a\]	.
2AA/	-cto	2e\	cum	(4e\	in	2g#X\	-men
.	.	.	.	4f\)	.	.	.
!	!	!	!	!LO:PB:g=original	!	!	!
=176	=176	=176	=176	=176	=176	=176	=176
2.BB/	spi-	2d\	san-	2g\	glo-	2a\	a-
.	.	2B\	-cto	4d\	-ri-	2a\	-men,
4BB/	-ri-	.	.	4e\	-a	.	.
=177	=177	=177	=177	=177	=177	=177	=177
2AA/	-tu	2.c\	spi-	4a\	De-	2gn/	glo-
.	.	.	.	4g\	.	.	.
2AA/	in	.	.	4f\	.	4g/	-ri-
.	.	4c\	-ri-	8e\L	.	4g/	-a
.	.	.	.	8d\J	.	.	.
!	!	!LO:LB:g=original	!	!	!	!	!
=178	=178	=178	=178	=178	=178	=178	=178
2BB/	glo-	2B\	-tu,	2e\	-i,	4fn\	De-
!	!	!LO:TX:t=P:problem:zamazana kreska taktowa i pauza	!	!	!	!	!
.	.	.	.	.	.	4g\	.
4BB/	-ri-	2d\	in	4e\	Pa-	4a\	.
4C/	-a	.	.	4g\	.	4b\	-i
!	!	!	!	!	!	!LO:LB:g=original	!
=179	=179	=179	=179	=179	=179	=179	=179
4D\	De-	2c\	glo-	4a\	.	4cc\	Pa-
4E\	.	.	.	4g\	.	4dd\	.
4F\	-i	4c\	-ri-	2f\	-tris	2ee\	.
4G\	.	4B\	-a	.	.	.	.
=180	=180	=180	=180	=180	=180	=180	=180
2.A\	Pa-	4A\	De-	2d\	a-	2dd\	.
.	.	4B\	-i	.	.	.	.
.	.	[y2B\	Pa-	2a\	-men	[y2dd\	-tris
4G\	.	.	.	.	.	.	.
!LO:LB:g=original	!	!	!	!	!	!	!
=181	=181	=181	=181	=181	=181	=181	=181
!	!	!LO:N:xstem:cue	!	!LO:TX:a:t=2	!	!LO:N:xstem:cue	!
4F\	.	4B\]	.	0e	a-	4dd\]	.
4E\	.	4A\	.	.	.	4cc\	a-
2D\	.	[2d\	.	.	.	4b\	.
.	.	.	.	.	.	4a\	.
=182	=182	=182	=182	=182	=182	=182	=182
1F	-tris	2d\]	.	.	.	2g#X\	.
.	.	2c\	-tris	.	.	[2a\	-men
=183	=183	=183	=183	=183	=183	=183	=183
!	!	!	!	!LO:TX:t=P:problem:brak t. 183-184	!	!	!
0E	a-	1B	a-	1ryy	.	2a\]	.
.	.	.	.	.	.	2g#X\	a-
=184	=184	=184	=184	=184	=184	=184	=184
!	!	!LO:TX:t=P:problem:brak t. 184	!	!	!	!LO:TX:t=P:problem:brak t. 184	!
.	.	1ryy	.	1ryy	.	1ryy	.
=185	=185	=185	=185	=185	=185	=185	=185
!	!	!LO:TX:a:t=2.	!	!LO:TX:a:t=2	!	!	!
!	!	!	!	!LO:N:vis=0.	!	!	!
0AA	-men.	0c#X	-men.	0e	-men.	0a	-men.
=186	=186	=186	=186	=186	=186	=186	=186
!	!	!	!	!	!	!LO:TX:b:t=34.	!
.	.	.	.	.	.	.	.
==	==	==	==	==	==	==	==
*-	*-	*-	*-	*-	*-	*-	*-
!!!system-decoration: [(s1,s2,s3,s4)]
!!!RDF**kern: > = above
!!!ENC: Marcin Jachim
!!!END: 2021-01-19
!!!ENC: Zofia Niedbalska
!!!END: 2021-01-27
